content-save-minus.svg

<svg fill="currentColor" viewBox="0 0 24 24"><path d="M17 3H5a2 2 0 0 0-2 2v14a2 2 0 0 0 2 2h7.81c-.36-.62-.61-1.3-.73-2H12c-1.66 0-3-1.34-3-3s1.34-3 3-3c.68 0 1.34.23 1.87.65A6.02 6.02 0 0 1 18 12c1.05 0 2.09.28 3 .81V7zm-2 6H5V5h10zm-1 8v2h8v-2z"/></svg>

<svg  viewBox="0 0 24 24" fill="currentColor"><path  d="M17 3H5C3.89 3 3 3.9 3 5V19C3 20.11 3.9 21 5 21H12.81C12.45 20.38 12.2 19.7 12.08 19L12 19C10.34 19 9 17.66 9 16S10.34 13 12 13C12.68 13 13.34 13.23 13.87 13.65C15 12.59 16.46 12 18 12C19.05 12 20.09 12.28 21 12.81V7L17 3M15 9H5V5H15V9M14 17V19H22V17H14Z"/></svg>
